flaticon/dialogue/chat-27.svg

<svg xmlns="http://www.w3.org/2000/svg" width="32" height="32" viewBox="0 0 24 24">
    <path d="M4 10.1875L9.199219 10.1875C9.421875 10.1875 9.601562 10.007812 9.601562 9.785156 9.601562 9.566406 9.421875 9.386719 9.199219 9.386719L4 9.386719C3.777344 9.386719 3.601562 9.566406 3.601562 9.785156 3.601562 10.007812 3.777344 10.1875 4 10.1875zM14.398438 11.785156L4 11.785156C3.777344 11.785156 3.601562 11.964844 3.601562 12.1875 3.601562 12.40625 3.777344 12.585938 4 12.585938L14.398438 12.585938C14.621094 12.585938 14.800781 12.40625 14.800781 12.1875 14.800781 11.964844 14.621094 11.785156 14.398438 11.785156zM14.398438 14.1875L4 14.1875C3.777344 14.1875 3.601562 14.363281 3.601562 14.585938 3.601562 14.808594 3.777344 14.984375 4 14.984375L14.398438 14.984375C14.621094 14.984375 14.800781 14.808594 14.800781 14.585938 14.800781 14.363281 14.621094 14.1875 14.398438 14.1875zM14.398438 14.1875"/>
    <path d="M 21.628906 1.015625 L 7.972656 0.984375 C 6.664062 0.984375 5.601562 2.050781 5.601562 3.359375 L 5.601562 5.40625 L 2.371094 5.414062 C 1.0625 5.414062 0 6.476562 0 7.785156 L 0 16.242188 C 0 17.550781 1.0625 18.613281 2.371094 18.613281 L 4.800781 18.613281 L 4.800781 22.613281 C 4.800781 22.78125 4.902344 22.929688 5.054688 22.988281 C 5.101562 23.003906 5.152344 23.015625 5.199219 23.015625 C 5.308594 23.015625 5.417969 22.96875 5.496094 22.882812 L 9.378906 18.613281 L 16.027344 18.585938 C 17.335938 18.585938 18.398438 17.523438 18.398438 16.214844 L 18.398438 16.167969 L 20.503906 18.484375 C 20.582031 18.570312 20.691406 18.613281 20.800781 18.613281 C 20.847656 18.613281 20.898438 18.605469 20.945312 18.589844 C 21.097656 18.527344 21.199219 18.378906 21.199219 18.214844 L 21.199219 14.214844 L 21.628906 14.214844 C 22.9375 14.214844 24 13.152344 24 11.84375 L 24 3.386719 C 24 2.078125 22.9375 1.015625 21.628906 1.015625 Z M 17.601562 16.214844 C 17.601562 17.082031 16.894531 17.785156 16.027344 17.785156 L 9.199219 17.8125 C 9.085938 17.8125 8.980469 17.863281 8.902344 17.945312 L 5.601562 21.578125 L 5.601562 18.214844 C 5.601562 17.992188 5.421875 17.8125 5.199219 17.8125 L 2.371094 17.8125 C 1.503906 17.8125 0.800781 17.109375 0.800781 16.242188 L 0.800781 7.785156 C 0.800781 6.917969 1.503906 6.214844 2.371094 6.214844 L 6 6.207031 L 16.027344 6.1875 C 16.894531 6.1875 17.601562 6.890625 17.601562 7.757812 Z M 23.199219 11.84375 C 23.199219 12.710938 22.496094 13.414062 21.628906 13.414062 L 20.800781 13.414062 C 20.578125 13.414062 20.398438 13.59375 20.398438 13.8125 L 20.398438 17.179688 L 18.398438 14.980469 L 18.398438 7.757812 C 18.398438 6.449219 17.335938 5.386719 16.027344 5.386719 L 6.398438 5.40625 L 6.398438 3.359375 C 6.398438 2.492188 7.105469 1.785156 7.972656 1.785156 L 21.628906 1.8125 C 22.496094 1.8125 23.199219 2.519531 23.199219 3.386719 Z M 23.199219 11.84375"/>
</svg>

<svg xmlns="http://www.w3.org/2000/svg" width="32" height="32" viewBox="0 0 24 24">
    <path d="M4 10.188h5.2a.401.401 0 0 0 0-.8L4 9.386a.398.398 0 0 0-.398.398c0 .223.175.402.398.402zm0 0M14.398 11.785H4a.398.398 0 0 0-.398.402c0 .22.175.399.398.399h10.398a.401.401 0 1 0 0-.8zm0 0M14.398 14.188H4a.395.395 0 0 0-.398.398c0 .223.175.398.398.398h10.398a.398.398 0 1 0 0-.796zm0 0"/>
    <path d="M21.629 1.016L7.973.984A2.376 2.376 0 0 0 5.602 3.36v2.047l-3.23.008A2.372 2.372 0 0 0 0 7.785v8.457a2.372 2.372 0 0 0 2.371 2.371h2.43v4a.4.4 0 0 0 .695.27l3.883-4.27 6.648-.027a2.372 2.372 0 0 0 2.371-2.371v-.047l2.106 2.316a.4.4 0 0 0 .297.13.466.466 0 0 0 .144-.024.408.408 0 0 0 .254-.375v-4h.43A2.372 2.372 0 0 0 24 11.844V3.387a2.372 2.372 0 0 0-2.371-2.371zm-4.027 15.199c0 .867-.707 1.57-1.575 1.57l-6.828.027a.412.412 0 0 0-.297.133l-3.3 3.633v-3.363a.402.402 0 0 0-.403-.402H2.371a1.57 1.57 0 0 1-1.57-1.57V7.784c0-.867.703-1.57 1.57-1.57L6 6.207l10.027-.02c.868 0 1.575.704 1.575 1.57zm5.597-4.371a1.57 1.57 0 0 1-1.57 1.57H20.8a.401.401 0 0 0-.403.399v3.367l-2-2.2V7.758a2.372 2.372 0 0 0-2.37-2.371l-9.63.02V3.358c0-.867.707-1.574 1.575-1.574l13.656.028c.867 0 1.57.707 1.57 1.574zm0 0"/>
</svg>
